public/img/decorations/deco-blob-5.svg

<svg width="135" height="206" viewBox="0 0 135 206" fill="none" xmlns="http://www.w3.org/2000/svg">
<path d="M60.5599 1.23097C64.9269 1.44397 69.7339 1.598 74.5289 1.946C77.0019 2.126 79.4569 2.61399 81.9099 3.02299C85.7209 3.65899 89.4979 4.637 93.3319 4.95C100.982 5.572 108.102 8.05497 115.238 10.567C118.152 11.593 121.043 12.692 123.97 13.684C125.589 14.233 126.911 15.155 127.816 16.563C129.066 18.508 130.453 20.428 131.296 22.55C132.007 24.338 132.097 26.393 132.343 28.344C132.997 33.537 133.73 38.728 134.14 43.942C134.312 46.13 133.915 48.408 133.49 50.588C132.371 56.318 131.154 62.032 129.863 67.727C128.574 73.424 127.207 79.106 125.767 84.768C124.263 90.678 122.726 96.583 121.025 102.439C119.877 106.389 118.421 110.25 117.095 114.148C116.847 114.88 116.497 115.582 116.292 116.324C114.382 123.22 111.356 129.695 108.813 136.353C107.067 140.927 105.219 145.468 103.637 150.099C102.428 153.636 100.489 156.771 98.8339 160.068C96.8609 164.002 94.6599 167.775 91.9059 171.216C91.6379 171.55 91.3419 171.888 91.1739 172.275C89.5079 176.127 86.7209 179.199 84.0979 182.373C81.5259 185.486 78.9519 188.615 76.1549 191.523C68.6159 199.361 59.4519 204.023 48.5589 205.109C48.0469 205.16 47.5199 205.214 47.0159 205.148C43.4569 204.679 39.9029 204.185 36.3479 203.689C31.0319 202.945 25.9359 201.337 21.0389 199.251C17.6619 197.813 14.5429 195.771 11.3199 193.976C10.6459 193.603 10.0559 193.078 9.37891 192.714C4.71891 190.216 2.12291 186.216 1.18991 181.14C0.240908 175.974 0.117912 170.738 0.183912 165.486C0.249912 160.334 0.0549003 155.179 0.0379003 150.025C0.0239003 145.132 0.0968999 140.238 0.1219 135.345C0.1549 129.251 0.0989109 123.156 0.226911 117.062C0.361911 110.714 -0.183096 104.348 0.781904 98.018C1.11791 95.811 1.1709 93.561 1.4929 91.351C2.3699 85.319 3.32891 79.298 4.24091 73.272C4.43391 71.998 4.5069 70.703 4.7429 69.437C5.7469 64.036 6.73491 58.631 7.83691 53.249C8.78591 48.622 9.78391 44.001 10.9439 39.424C11.7859 36.098 12.8639 32.828 13.9459 29.57C15.5419 24.763 16.7549 19.807 19.2289 15.329C21.2019 11.76 23.6059 8.51399 26.9769 6.14699C29.7679 4.18699 33.0549 3.32797 36.3189 2.57997C44.7239 0.651972 51.2199 0.329973 60.5599 1.23097ZM105.419 53.443C105.22 53.077 105.023 52.712 104.823 52.346C104.702 52.446 104.581 52.545 104.458 52.645C104.778 52.911 105.099 53.177 105.417 53.444C105.478 53.936 105.427 54.477 105.618 54.911C106.126 56.062 106.862 55.945 107.761 55.212C107.261 54.83 106.884 54.539 106.503 54.252C106.144 53.979 105.78 53.711 105.419 53.443ZM76.2879 124.701C75.1119 122.146 74.0989 121.558 72.7819 122.418C72.5549 122.564 72.4169 122.965 72.3909 123.26C72.3769 123.442 72.6209 123.768 72.8109 123.822C73.8409 124.121 74.8899 124.357 76.2879 124.701ZM67.4479 116.584C65.6959 117.957 65.6919 118.332 67.5669 119.297C67.8579 118.342 68.3679 117.496 67.4479 116.584ZM57.7059 114.078C59.6399 113.396 59.6399 113.396 58.9949 111.521C58.5869 112.334 58.2709 112.961 57.7059 114.078ZM94.2389 47.635C94.3579 47.316 94.5339 47.081 94.4829 46.916C94.4319 46.748 94.1569 46.647 93.9809 46.518C93.8739 46.707 93.6609 46.916 93.6899 47.08C93.7239 47.257 93.9829 47.392 94.2389 47.635ZM43.9439 25.55C43.8599 25.65 43.7759 25.748 43.6919 25.847C43.7799 25.982 43.8439 26.2 43.9629 26.234C44.2269 26.309 44.5179 26.295 44.7969 26.316C44.5129 26.061 44.2279 25.806 43.9439 25.55ZM75.6459 39.062C75.7259 38.946 75.8879 38.808 75.8649 38.718C75.8339 38.592 75.6619 38.502 75.5509 38.397C75.4729 38.513 75.3109 38.65 75.3319 38.742C75.3619 38.866 75.5319 38.957 75.6459 39.062Z" fill="black"/>
</svg>

<svg width="135" height="206" fill="none" xmlns="http://www.w3.org/2000/svg"><path d="M60.56 1.231c4.367.213 9.174.367 13.969.715 2.473.18 4.928.668 7.38 1.077 3.812.636 7.589 1.614 11.423 1.927 7.65.622 14.77 3.105 21.906 5.617 2.914 1.026 5.805 2.125 8.732 3.117 1.619.549 2.941 1.471 3.846 2.879 1.25 1.945 2.637 3.865 3.48 5.987.711 1.788.801 3.843 1.047 5.794.654 5.193 1.387 10.384 1.797 15.598.172 2.188-.225 4.466-.65 6.646a582.875 582.875 0 01-3.627 17.139 660.624 660.624 0 01-4.096 17.041c-1.504 5.91-3.041 11.815-4.742 17.671-1.148 3.95-2.604 7.811-3.93 11.709-.248.732-.598 1.434-.803 2.176-1.91 6.896-4.936 13.371-7.479 20.029-1.746 4.574-3.594 9.115-5.176 13.746-1.209 3.537-3.148 6.672-4.803 9.969-1.973 3.934-4.174 7.707-6.928 11.148-.268.334-.564.672-.732 1.059-1.666 3.852-4.453 6.924-7.076 10.098-2.572 3.113-5.146 6.242-7.943 9.15-7.54 7.838-16.703 12.5-27.596 13.586-.512.051-1.04.105-1.543.039-3.56-.469-7.113-.963-10.668-1.459-5.316-.744-10.412-2.352-15.31-4.438-3.376-1.438-6.495-3.48-9.718-5.275-.674-.373-1.264-.898-1.941-1.262-4.66-2.498-7.256-6.498-8.19-11.574-.948-5.166-1.071-10.402-1.005-15.654.066-5.152-.13-10.307-.146-15.461-.014-4.893.059-9.787.084-14.68.033-6.094-.023-12.189.105-18.283.135-6.348-.41-12.714.555-19.044.336-2.207.389-4.457.71-6.667.878-6.032 1.837-12.053 2.749-18.079.193-1.274.266-2.569.502-3.835 1.004-5.401 1.992-10.806 3.094-16.188.949-4.627 1.947-9.248 3.107-13.825.842-3.326 1.92-6.596 3.002-9.854 1.596-4.807 2.809-9.763 5.283-14.241 1.973-3.569 4.377-6.815 7.748-9.182 2.79-1.96 6.078-2.819 9.342-3.567 8.405-1.928 14.9-2.25 24.24-1.349zm44.859 52.212c-.199-.366-.396-.731-.596-1.097l-.365.299c.32.266.641.532.959.799.061.492.01 1.033.201 1.467.508 1.151 1.244 1.034 2.143.301-.5-.382-.877-.673-1.258-.96-.359-.273-.723-.541-1.084-.809zm-29.131 71.258c-1.176-2.555-2.19-3.143-3.506-2.283-.227.146-.365.547-.391.842-.014.182.23.508.42.562 1.03.299 2.079.535 3.477.879zm-8.84-8.117c-1.752 1.373-1.756 1.748.119 2.713.29-.955.8-1.801-.12-2.713zm-9.742-2.506c1.934-.682 1.934-.682 1.289-2.557a655.7 655.7 0 01-1.29 2.557zm36.533-66.443c.119-.319.295-.554.244-.719-.051-.168-.326-.269-.502-.398-.107.189-.32.398-.291.562.034.177.293.312.549.555zM43.944 25.55l-.252.297c.088.135.152.353.27.387.265.075.556.061.835.082-.284-.255-.57-.51-.853-.766zm31.702 13.512c.08-.116.242-.254.219-.344-.031-.126-.203-.216-.314-.321-.078.116-.24.253-.22.345.03.124.2.215.315.32z" fill="#000"/></svg>
